;FLAVOR:Marlin
;TIME:12736
;Filament used: 5.51967m
;Layer height: 0.1
;MINX:-57.505
;MINY:-57.516
;MINZ:0.26
;MAXX:57.505
;MAXY:57.516
;MAXZ:1.96
;Generated with Cura_SteamEngine 4.9.0
M82 ;absolute extrusion mode
;Gcode by Cura
G90
G28
M107
M109 R100
G30
M109 S205 U-55 X55 V-85 Y-85 W0.26 Z0.26
M82
G92 E0
G1 F200 E6
G92 E0
G1 F200 E-3.5
G0 Z0.15
G0 X10
G0 Z3
G1 F6000

G92 E0
G92 E0
G1 F3600 E-3.8
;LAYER_COUNT:18
;LAYER:0
M107
G0 F2720 X57.377 Y3.581 Z0.26
;TYPE:SKIRT
G1 F3600 E0
G1 F1020 X57.277 Y5.224 E0.06299
G1 X57.264 Y5.384 E0.06914
G1 X57.154 Y6.414 E0.10878
G1 X57.097 Y6.888 E0.12705
G1 X56.883 Y8.534 E0.19057
G1 X56.859 Y8.688 E0.19654
G1 X56.625 Y10.022 E0.24837
G1 X56.464 Y10.891 E0.28219
G1 X56.267 Y11.925 E0.32247
G1 X56.146 Y12.473 E0.34395
G1 X55.74 Y14.16 E0.41035
G1 X55.494 Y15.13 E0.44865
G1 X55.458 Y15.262 E0.45388
G1 X55.148 Y16.309 E0.49567
G1 X54.779 Y17.489 E0.54299
G1 X54.456 Y18.51 E0.58397
G1 X54.414 Y18.633 E0.58894
G1 X54.07 Y19.597 E0.62811
G1 X53.866 Y20.148 E0.6506
G1 X53.298 Y21.628 E0.71126
G1 X53.245 Y21.759 E0.71667
G1 X52.896 Y22.568 E0.75039
G1 X52.474 Y23.505 E0.78972
G1 X52.004 Y24.583 E0.83472
G1 X51.836 Y24.931 E0.84951
G1 X51.231 Y26.099 E0.89985
G1 X50.725 Y27.09 E0.94243
G1 X50.488 Y27.558 E0.96251
G1 X50.39 Y27.739 E0.97039
G1 X49.945 Y28.522 E1.00485
G1 X49.898 Y28.592 E1.00808
G1 X48.55 Y30.837 E1.10829
G1 X48.475 Y30.956 E1.11368
G1 X48.116 Y31.503 E1.13871
G1 X47.862 Y31.878 E1.15605
G1 X46.634 Y33.666 E1.23906
G1 X46.553 Y33.779 E1.24438
G1 X45.886 Y34.671 E1.287
G1 X44.645 Y36.266 E1.36434
G1 X44.553 Y36.379 E1.36992
G1 X44.01 Y37.02 E1.40207
G1 X43.14 Y38.016 E1.45268
G1 X42.642 Y38.603 E1.48214
G1 X42.517 Y38.743 E1.48932
G1 X42.085 Y39.2 E1.51339
G1 X40.909 Y40.418 E1.57818
G1 X40.051 Y41.282 E1.62478
G1 X39.964 Y41.367 E1.62943
G1 X39.255 Y42.032 E1.66663
G1 X37.353 Y43.736 E1.76436
G1 X37.139 Y43.915 E1.77504
G1 X36.141 Y44.719 E1.82408
G1 X35.078 Y45.587 E1.8766
G1 X34.935 Y45.698 E1.88353
G1 X33.784 Y46.542 E1.93815
G1 X32.195 Y47.657 E2.01244
G1 X32.094 Y47.726 E2.01712
G1 X31.211 Y48.3 E2.05743
G1 X30.442 Y48.778 E2.09208
G1 X29.432 Y49.421 E2.1379
G1 X29.269 Y49.519 E2.14518
G1 X28.149 Y50.148 E2.19433
G1 X26.091 Y51.257 E2.2838
G1 X25.952 Y51.328 E2.28977
G1 X24.874 Y51.848 E2.33558
G1 X24.01 Y52.25 E2.37205
G1 X23.471 Y52.511 E2.39496
G1 X23.213 Y52.627 E2.40579
G1 X22.073 Y53.106 E2.45311
G1 X19.883 Y53.97 E2.54321
G1 X19.744 Y54.021 E2.54887
G1 X18.777 Y54.356 E2.58804
G1 X17.859 Y54.661 E2.62506
G1 X17.018 Y54.945 E2.65903
G1 X16.869 Y54.991 E2.665
G1 X16.171 Y55.193 E2.69281
G1 X14.968 Y55.526 E2.74057
G1 X13.395 Y55.936 E2.80278
G1 X13.23 Y55.975 E2.80927
G1 X11.738 Y56.288 E2.86761
G1 X11.359 Y56.372 E2.88247
G1 X10.109 Y56.621 E2.93125
G1 X9.654 Y56.697 E2.9489
G1 X8.321 Y56.891 E3.00045
G1 X7.067 Y57.083 E3.049
G1 X6.9 Y57.105 E3.05545
G1 X6.242 Y57.173 E3.08076
G1 X5.076 Y57.273 E3.12555
G1 X3.683 Y57.402 E3.17909
G1 X3.511 Y57.414 E3.18568
G1 X2.329 Y57.464 E3.23096
G1 X-.128 Y57.516 E3.32501
G1 X-.277 Y57.516 E3.33071
G1 X-1.454 Y57.491 E3.37576
G1 X-2.201 Y57.469 E3.40436
G1 X-3.42 Y57.416 E3.45106
G1 X-4.373 Y57.346 E3.48763
G1 X-6.925 Y57.098 E3.58575
G1 X-7.092 Y57.078 E3.59219
G1 X-8.416 Y56.885 E3.64339
G1 X-10.31 Y56.585 E3.71678
G1 X-10.477 Y56.554 E3.72328
G1 X-12.018 Y56.233 E3.78352
G1 X-12.494 Y56.132 E3.80214
G1 X-13.56 Y55.895 E3.84393
G1 X-13.674 Y55.868 E3.84841
G1 X-14.517 Y55.651 E3.88173
G1 X-16.944 Y54.963 E3.97827
G1 X-17.446 Y54.804 E3.99842
G1 X-18.196 Y54.554 E4.02867
G1 X-20.059 Y53.907 E4.10415
G1 X-20.193 Y53.857 E4.10962
G1 X-21.533 Y53.329 E4.16474
G1 X-23.287 Y52.593 E4.23753
G1 X-23.453 Y52.519 E4.24449
G1 X-24.333 Y52.095 E4.28187
G1 X-25.388 Y51.601 E4.32645
G1 X-26.289 Y51.159 E4.36486
G1 X-26.407 Y51.098 E4.36994
G1 X-27.574 Y50.47 E4.42066
G1 X-29.327 Y49.479 E4.49772
G1 X-29.457 Y49.401 E4.50353
G1 X-30.467 Y48.771 E4.54908
G1 X-32.187 Y47.668 E4.62728
G1 X-32.313 Y47.584 E4.63307
G1 X-33.456 Y46.778 E4.68659
G1 X-34.981 Y45.657 E4.75903
G1 X-35.107 Y45.56 E4.76511
G1 X-36.159 Y44.711 E4.81685
G1 X-37.374 Y43.723 E4.87678
G1 X-37.494 Y43.621 E4.8828
G1 X-38.689 Y42.557 E4.94404
G1 X-38.82 Y42.422 E4.95124
G1 X-39.906 Y41.426 E5.00763
G1 X-40.017 Y41.32 E5.0135
G1 X-40.821 Y40.514 E5.05707
G1 X-42.562 Y38.684 E5.15373
G1 X-42.964 Y38.238 E5.17671
G1 X-43.032 Y38.16 E5.18067
G1 X-44.813 Y36.053 E5.28625
G1 X-44.928 Y35.91 E5.29328
G1 X-45.64 Y34.973 E5.33831
G1 X-45.891 Y34.65 E5.35397
G1 X-46.806 Y33.424 E5.41251
G1 X-47.088 Y33.022 E5.4313
G1 X-47.957 Y31.739 E5.49061
G1 X-48.665 Y30.658 E5.54006
G1 X-48.929 Y30.228 E5.55937
G1 X-49.605 Y29.072 E5.61062
G1 X-50.267 Y27.96 E5.66014
G1 X-50.349 Y27.815 E5.66652
G1 X-50.649 Y27.25 E5.691
G1 X-51.325 Y25.915 E5.74827
G1 X-51.828 Y24.947 E5.79001
G1 X-51.905 Y24.789 E5.79674
G1 X-52.159 Y24.234 E5.8201
G1 X-52.779 Y22.813 E5.87943
G1 X-53.246 Y21.763 E5.92341
G1 X-53.326 Y21.566 E5.93155
G1 X-53.765 Y20.405 E5.97905
G1 X-54.54 Y18.256 E6.06647
G1 X-54.582 Y18.134 E6.07141
G1 X-54.825 Y17.374 E6.10195
G1 X-55.508 Y15.065 E6.19409
G1 X-55.548 Y14.921 E6.19981
G1 X-55.842 Y13.742 E6.24632
G1 X-56.318 Y11.677 E6.32741
G1 X-56.344 Y11.551 E6.33234
G1 X-56.549 Y10.484 E6.37392
G1 X-56.896 Y8.426 E6.45379
G1 X-56.915 Y8.301 E6.45863
G1 X-57.052 Y7.26 E6.49881
G1 X-57.095 Y6.906 E6.51246
G1 X-57.3 Y5.001 E6.58578
G1 X-57.312 Y4.856 E6.59135
G1 X-57.419 Y3.226 E6.65386
G1 X-57.495 Y1.585 E6.71673
G1 X-57.499 Y1.443 E6.72217
G1 X-57.505 Y0.402 E6.76201
G1 X-57.491 Y-1.768 E6.84505
G1 X-57.468 Y-2.291 E6.86509
G1 X-57.379 Y-3.576 E6.91438
G1 X-57.28 Y-5.209 E6.97699
G1 X-57.266 Y-5.374 E6.98333
G1 X-57.158 Y-6.365 E7.02148
G1 X-57.094 Y-6.908 E7.0424
G1 X-56.882 Y-8.535 E7.10519
G1 X-56.859 Y-8.687 E7.11107
G1 X-56.623 Y-10.039 E7.1636
G1 X-56.268 Y-11.919 E7.23682
G1 X-56.143 Y-12.48 E7.25881
G1 X-55.74 Y-14.162 E7.325
G1 X-55.493 Y-15.133 E7.36335
G1 X-55.457 Y-15.266 E7.36862
G1 X-55.131 Y-16.364 E7.41245
G1 X-54.776 Y-17.501 E7.45803
G1 X-54.456 Y-18.512 E7.49862
G1 X-54.068 Y-19.603 E7.54293
G1 X-53.865 Y-20.151 E7.5653
G1 X-53.298 Y-21.628 E7.62584
G1 X-53.245 Y-21.759 E7.63125
G1 X-52.895 Y-22.57 E7.66505
G1 X-52.462 Y-23.531 E7.70539
G1 X-52.004 Y-24.581 E7.74923
G1 X-51.836 Y-24.931 E7.76409
G1 X-51.231 Y-26.099 E7.81443
G1 X-50.725 Y-27.09 E7.85701
G1 X-50.488 Y-27.558 E7.87709
G1 X-50.39 Y-27.739 E7.88496
G1 X-49.945 Y-28.522 E7.91943
G1 X-49.898 Y-28.592 E7.92266
G1 X-48.55 Y-30.837 E8.02287
G1 X-48.474 Y-30.957 E8.0283
G1 X-48.088 Y-31.545 E8.05522
G1 X-47.862 Y-31.878 E8.07062
G1 X-46.632 Y-33.669 E8.15377
G1 X-46.549 Y-33.784 E8.1592
G1 X-45.874 Y-34.685 E8.20228
G1 X-44.645 Y-36.265 E8.27889
G1 X-44.553 Y-36.379 E8.28449
G1 X-44.01 Y-37.02 E8.31664
G1 X-43.14 Y-38.016 E8.36725
G1 X-42.642 Y-38.603 E8.39671
G1 X-42.517 Y-38.743 E8.40389
G1 X-42.085 Y-39.2 E8.42796
G1 X-40.909 Y-40.418 E8.49275
G1 X-40.051 Y-41.282 E8.53935
G1 X-39.964 Y-41.367 E8.54401
G1 X-39.255 Y-42.032 E8.58121
G1 X-37.353 Y-43.736 E8.67894
G1 X-37.139 Y-43.915 E8.68961
G1 X-36.141 Y-44.719 E8.73866
G1 X-35.078 Y-45.587 E8.79118
G1 X-34.935 Y-45.698 E8.79811
G1 X-33.784 Y-46.542 E8.85273
G1 X-32.195 Y-47.657 E8.92701
G1 X-32.095 Y-47.725 E8.93164
G1 X-31.206 Y-48.303 E8.97222
G1 X-30.432 Y-48.784 E9.0071
G1 X-29.434 Y-49.42 E9.05239
G1 X-29.268 Y-49.519 E9.05978
G1 X-28.133 Y-50.157 E9.10961
G1 X-26.091 Y-51.257 E9.19837
G1 X-25.952 Y-51.328 E9.20435
G1 X-24.874 Y-51.848 E9.25015
G1 X-24.01 Y-52.25 E9.28662
G1 X-23.471 Y-52.511 E9.30954
G1 X-23.213 Y-52.627 E9.32036
G1 X-22.073 Y-53.106 E9.36769
G1 X-19.883 Y-53.97 E9.45778
G1 X-19.744 Y-54.021 E9.46345
G1 X-18.777 Y-54.356 E9.50261
G1 X-17.859 Y-54.661 E9.53963
G1 X-17.018 Y-54.945 E9.5736
G1 X-16.869 Y-54.991 E9.57957
G1 X-16.171 Y-55.193 E9.60738
G1 X-14.967 Y-55.526 E9.65519
G1 X-13.389 Y-55.937 E9.71759
G1 X-13.225 Y-55.976 E9.72404
G1 X-11.725 Y-56.291 E9.7827
G1 X-11.287 Y-56.387 E9.79986
G1 X-10.109 Y-56.621 E9.84582
G1 X-9.654 Y-56.697 E9.86347
G1 X-8.321 Y-56.891 E9.91502
G1 X-7.067 Y-57.083 E9.96357
G1 X-6.9 Y-57.105 E9.97002
G1 X-6.242 Y-57.173 E9.99533
G1 X-5.076 Y-57.273 E10.04012
G1 X-3.683 Y-57.402 E10.09366
G1 X-3.511 Y-57.414 E10.10026
G1 X-2.329 Y-57.464 E10.14553
G1 X0.128 Y-57.516 E10.23958
G1 X0.277 Y-57.516 E10.24528
G1 X1.455 Y-57.491 E10.29037
G1 X2.201 Y-57.469 E10.31894
G1 X3.42 Y-57.416 E10.36563
G1 X4.373 Y-57.346 E10.4022
G1 X6.925 Y-57.098 E10.50032
G1 X7.091 Y-57.078 E10.50672
G1 X8.411 Y-56.886 E10.55777
G1 X10.311 Y-56.585 E10.63139
G1 X10.477 Y-56.554 E10.63785
G1 X12.018 Y-56.233 E10.69809
G1 X12.494 Y-56.132 E10.71671
G1 X13.56 Y-55.895 E10.7585
G1 X13.674 Y-55.868 E10.76299
G1 X14.517 Y-55.651 E10.7963
G1 X16.944 Y-54.963 E10.89284
G1 X17.456 Y-54.801 E10.91339
G1 X18.181 Y-54.559 E10.94264
G1 X20.059 Y-53.907 E11.01872
G1 X20.193 Y-53.857 E11.02419
G1 X21.533 Y-53.329 E11.07931
G1 X23.287 Y-52.593 E11.15211
G1 X23.453 Y-52.519 E11.15906
G1 X24.331 Y-52.096 E11.19636
G1 X25.39 Y-51.599 E11.24113
G1 X26.288 Y-51.159 E11.2794
G1 X26.406 Y-51.099 E11.28446
G1 X27.574 Y-50.47 E11.33523
G1 X29.326 Y-49.48 E11.41224
G1 X29.458 Y-49.402 E11.41811
G1 X30.447 Y-48.784 E11.46274
G1 X32.187 Y-47.668 E11.54185
G1 X32.313 Y-47.584 E11.54765
G1 X33.397 Y-46.821 E11.59838
G1 X34.979 Y-45.658 E11.67352
G1 X35.105 Y-45.562 E11.67958
G1 X36.144 Y-44.724 E11.73066
G1 X37.377 Y-43.721 E11.79149
G1 X37.494 Y-43.621 E11.79738
G1 X38.482 Y-42.743 E11.84796
G1 X38.819 Y-42.422 E11.86577
G1 X39.906 Y-41.426 E11.92219
G1 X40.017 Y-41.32 E11.92807
G1 X40.821 Y-40.514 E11.97164
G1 X42.562 Y-38.684 E12.0683
G1 X42.964 Y-38.238 E12.09128
G1 X43.032 Y-38.16 E12.09524
G1 X44.8 Y-36.069 E12.20003
G1 X44.913 Y-35.928 E12.20694
G1 X45.603 Y-35.021 E12.25056
G1 X45.891 Y-34.65 E12.26853
G1 X46.874 Y-33.331 E12.33149
G1 X47.094 Y-33.013 E12.34628
G1 X47.949 Y-31.752 E12.40459
G1 X48.665 Y-30.659 E12.45459
G1 X48.945 Y-30.202 E12.4751
G1 X49.572 Y-29.128 E12.5227
G1 X50.267 Y-27.96 E12.57471
G1 X50.35 Y-27.813 E12.58117
G1 X50.648 Y-27.25 E12.60555
G1 X51.306 Y-25.953 E12.66121
G1 X51.828 Y-24.947 E12.70458
G1 X51.902 Y-24.795 E12.71105
G1 X52.164 Y-24.224 E12.73509
G1 X52.778 Y-22.815 E12.79391
G1 X53.225 Y-21.811 E12.83597
G1 X53.326 Y-21.566 E12.84611
G1 X53.765 Y-20.405 E12.89361
G1 X54.54 Y-18.256 E12.98104
G1 X54.58 Y-18.137 E12.98584
G1 X54.839 Y-17.33 E13.01828
G1 X55.507 Y-15.069 E13.1085
G1 X55.61 Y-14.678 E13.12398
G1 X55.841 Y-13.748 E13.16065
G1 X56.315 Y-11.694 E13.24132
G1 X56.534 Y-10.564 E13.28537
G1 X56.549 Y-10.484 E13.28848
G1 X56.896 Y-8.426 E13.36835
G1 X56.915 Y-8.301 E13.37319
G1 X57.052 Y-7.261 E13.41334
G1 X57.095 Y-6.907 E13.42698
G1 X57.3 Y-5.001 E13.50035
G1 X57.312 Y-4.857 E13.50588
G1 X57.418 Y-3.245 E13.5677
G1 X57.495 Y-1.585 E13.6313
G1 X57.499 Y-1.443 E13.63673
G1 X57.505 Y-.403 E13.67653
G1 X57.491 Y1.768 E13.75962
G1 X57.467 Y2.295 E13.77981
G1 X57.377 Y3.581 E13.82914
G0 F2720 X57.028 Y3.557
G1 F1020 X56.928 Y5.203 E13.89225
G1 X56.916 Y5.347 E13.89778
G1 X56.806 Y6.372 E13.93723
G1 X56.75 Y6.843 E13.95538
G1 X56.536 Y8.489 E14.0189
G1 X56.514 Y8.627 E14.02425
G1 X56.281 Y9.958 E14.07596
G1 X56.12 Y10.825 E14.10971
G1 X55.923 Y11.859 E14.14999
G1 X55.793 Y12.447 E14.17304
G1 X55.401 Y14.073 E14.23705
G1 X55.155 Y15.043 E14.27534
G1 X55.122 Y15.163 E14.28011
G1 X54.813 Y16.205 E14.3217
G1 X54.445 Y17.384 E14.36897
G1 X54.122 Y18.405 E14.40995
G1 X54.085 Y18.515 E14.41439
G1 X53.741 Y19.476 E14.45345
G1 X53.539 Y20.023 E14.47577
G1 X52.971 Y21.503 E14.53643
G1 X52.923 Y21.62 E14.54127
G1 X52.577 Y22.424 E14.57477
G1 X52.155 Y23.361 E14.6141
G1 X51.683 Y24.443 E14.65927
G1 X51.525 Y24.77 E14.67317
G1 X50.92 Y25.938 E14.72351
G1 X50.179 Y27.393 E14.786
G1 X50.085 Y27.566 E14.79353
G1 X49.64 Y28.349 E14.828
G1 X49.598 Y28.411 E14.83087
G1 X48.25 Y30.656 E14.93108
G1 X48.183 Y30.764 E14.93594
G1 X47.826 Y31.307 E14.96081
G1 X47.573 Y31.679 E14.97803
G1 X46.345 Y33.467 E15.06104
G1 X46.272 Y33.569 E15.06584
G1 X45.61 Y34.456 E15.1082
G1 X44.369 Y36.051 E15.18554
G1 X44.286 Y36.153 E15.19057
G1 X43.746 Y36.79 E15.22253
G1 X42.876 Y37.786 E15.27314
G1 X42.375 Y38.377 E15.30279
G1 X42.263 Y38.503 E15.30924
G1 X41.833 Y38.957 E15.33317
G1 X40.661 Y40.171 E15.39775
G1 X39.803 Y41.035 E15.44434
G1 X39.021 Y41.772 E15.48547
G1 X37.197 Y43.408 E15.57924
G1 X36.919 Y43.643 E15.59317
G1 X35.902 Y44.462 E15.64314
G1 X34.856 Y45.316 E15.69481
G1 X34.728 Y45.416 E15.70103
G1 X33.583 Y46.256 E15.75538
G1 X31.994 Y47.371 E15.82966
G1 X31.903 Y47.433 E15.83388
G1 X31.083 Y47.967 E15.87133
G1 X30.254 Y48.482 E15.90868
G1 X29.244 Y49.125 E15.9545
G1 X29.097 Y49.214 E15.96107
G1 X27.983 Y49.84 E16.00998
G1 X25.925 Y50.949 E16.09944
G1 X25.8 Y51.013 E16.10482
G1 X24.727 Y51.531 E16.15041
G1 X23.858 Y51.935 E16.18709
G1 X23.237 Y52.234 E16.21346
G1 X23.077 Y52.304 E16.22015
G1 X21.944 Y52.78 E16.26718
G1 X19.754 Y53.644 E16.35728
G1 X19.629 Y53.691 E16.36239
G1 X18.668 Y54.024 E16.40131
G1 X17.732 Y54.334 E16.43904
G1 X16.906 Y54.613 E16.47241
G1 X16.771 Y54.655 E16.47782
G1 X16.078 Y54.855 E16.50542
G1 X14.88 Y55.187 E16.553
G1 X13.307 Y55.597 E16.6152
G1 X13.158 Y55.632 E16.62106
G1 X11.702 Y55.938 E16.678
G1 X11.214 Y56.045 E16.69712
G1 X9.933 Y56.298 E16.74709
G1 X9.603 Y56.351 E16.75988
G1 X8.27 Y56.545 E16.81143
G1 X7.014 Y56.737 E16.86006
G1 X6.864 Y56.757 E16.86585
G1 X6.212 Y56.824 E16.89093
G1 X5.022 Y56.926 E16.93664
G1 X3.651 Y57.053 E16.98933
G1 X3.496 Y57.064 E16.99528
G1 X2.321 Y57.114 E17.04028
G1 X-.136 Y57.166 E17.13433
G1 X-.27 Y57.166 E17.13946
G1 X-1.443 Y57.142 E17.18436
G1 X-2.186 Y57.119 E17.21281
G1 X-3.405 Y57.066 E17.2595
G1 X-4.347 Y56.997 E17.29565
G1 X-6.891 Y56.75 E17.39347
G1 X-7.041 Y56.732 E17.39925
G1 X-8.362 Y56.539 E17.45034
G1 X-10.256 Y56.239 E17.52372
G1 X-10.406 Y56.211 E17.52956
G1 X-11.941 Y55.891 E17.58957
G1 X-12.418 Y55.79 E17.60823
G1 X-13.586 Y55.529 E17.65403
G1 X-14.505 Y55.291 E17.69036
G1 X-16.953 Y54.595 E17.78776
G1 X-17.339 Y54.471 E17.80327
G1 X-18.082 Y54.223 E17.83325
G1 X-19.945 Y53.576 E17.90872
G1 X-20.065 Y53.532 E17.91361
G1 X-21.397 Y53.007 E17.96841
G1 X-23.151 Y52.271 E18.0412
G1 X-23.301 Y52.203 E18.0475
G1 X-24.148 Y51.795 E18.08348
G1 X-25.181 Y51.312 E18.12712
G1 X-26.242 Y50.79 E18.17237
G1 X-27.401 Y50.165 E18.22277
G1 X-29.154 Y49.174 E18.29983
G1 X-29.272 Y49.104 E18.30508
G1 X-30.278 Y48.477 E18.35045
G1 X-31.998 Y47.374 E18.42864
G1 X-32.111 Y47.297 E18.43387
G1 X-33.248 Y46.496 E18.4871
G1 X-34.773 Y45.375 E18.55953
G1 X-34.887 Y45.288 E18.56502
G1 X-35.938 Y44.439 E18.61673
G1 X-37.153 Y43.451 E18.67666
G1 X-37.261 Y43.359 E18.68209
G1 X-38.456 Y42.295 E18.74332
G1 X-38.579 Y42.167 E18.75011
G1 X-39.669 Y41.168 E18.80669
G1 X-39.769 Y41.072 E18.812
G1 X-40.567 Y40.272 E18.85524
G1 X-42.371 Y38.374 E18.95545
G1 X-42.765 Y37.934 E18.97806
G1 X-44.546 Y35.827 E19.08364
G1 X-44.649 Y35.698 E19.08995
G1 X-45.361 Y34.761 E19.13499
G1 X-45.61 Y34.441 E19.15051
G1 X-46.525 Y33.215 E19.20905
G1 X-46.798 Y32.826 E19.22724
G1 X-47.664 Y31.548 E19.28632
G1 X-48.372 Y30.467 E19.33577
G1 X-48.627 Y30.052 E19.35441
G1 X-49.303 Y28.896 E19.40566
G1 X-49.966 Y27.781 E19.4553
G1 X-50.04 Y27.651 E19.46103
G1 X-50.337 Y27.092 E19.48525
G1 X-50.998 Y25.787 E19.54124
G1 X-51.518 Y24.786 E19.58441
G1 X-51.587 Y24.644 E19.59045
G1 X-51.838 Y24.094 E19.61358
G1 X-52.458 Y22.673 E19.67292
G1 X-52.923 Y21.629 E19.71665
G1 X-52.998 Y21.442 E19.72436
G1 X-53.436 Y20.286 E19.77167
G1 X-54.211 Y18.137 E19.8591
G1 X-54.248 Y18.027 E19.86354
G1 X-54.512 Y17.2 E19.89676
G1 X-55.173 Y14.965 E19.98596
G1 X-55.208 Y14.836 E19.99107
G1 X-55.501 Y13.663 E20.03734
G1 X-55.977 Y11.598 E20.11844
G1 X-56.001 Y11.485 E20.12286
G1 X-56.204 Y10.426 E20.16413
G1 X-56.551 Y8.368 E20.244
G1 X-56.568 Y8.255 E20.24837
G1 X-56.704 Y7.217 E20.28843
G1 X-56.747 Y6.869 E20.30185
G1 X-56.952 Y4.964 E20.37518
G1 X-56.963 Y4.833 E20.38021
G1 X-57.07 Y3.21 E20.44245
G1 X-57.146 Y1.569 E20.50532
G1 X-57.149 Y1.441 E20.51022
G1 X-57.155 Y0.405 E20.54987
G1 X-57.141 Y-1.765 E20.63292
