;FLAVOR:Marlin
;TIME:10869
;Filament used: 4.45374m
;Layer height: 0.1
;MINX:-67.506
;MINY:-67.517
;MINZ:0.26
;MAXX:67.506
;MAXY:67.517
;MAXZ:1.96
;Generated with Cura_SteamEngine 4.9.0
M82 ;absolute extrusion mode
;Gcode by Cura
G90
G28
M107
M109 R100
G30
M109 S205 U-55 X55 V-85 Y-85 W0.26 Z0.26
M82
G92 E0
G1 F200 E6
G92 E0
G1 F200 E-3.5
G0 Z0.15
G0 X10
G0 Z3
G1 F6000

G92 E0
G92 E0
G1 F3600 E-3.8
;LAYER_COUNT:18
;LAYER:0
M107
G0 F2720 X-60.846 Y29.207 Z0.26
;TYPE:SKIRT
G1 F3600 E0
G1 F1020 X-61.622 Y27.585 E0.06881
G1 X-61.685 Y27.448 E0.07458
G1 X-62.298 Y26.011 E0.13437
G1 X-62.672 Y25.107 E0.17181
G1 X-62.87 Y24.633 E0.19147
G1 X-63.517 Y22.865 E0.26352
G1 X-63.73 Y22.263 E0.28795
G1 X-63.922 Y21.747 E0.30902
G1 X-63.975 Y21.593 E0.31526
G1 X-64.218 Y20.833 E0.34579
G1 X-64.384 Y20.275 E0.36807
G1 X-65.037 Y18.131 E0.45384
G1 X-65.077 Y17.991 E0.45942
G1 X-65.464 Y16.502 E0.51829
G1 X-65.482 Y16.445 E0.52058
G1 X-65.833 Y14.995 E0.57767
G1 X-65.958 Y14.41 E0.60057
G1 X-66.097 Y13.682 E0.62893
G1 X-66.513 Y11.592 E0.71048
G1 X-66.538 Y11.45 E0.716
G1 X-66.656 Y10.701 E0.74502
G1 X-67.007 Y8.276 E0.83879
G1 X-67.065 Y7.767 E0.85839
G1 X-67.342 Y4.846 E0.97068
G1 X-67.354 Y4.678 E0.97713
G1 X-67.42 Y3.289 E1.03034
G1 X-67.495 Y1.87 E1.08472
G1 X-67.5 Y1.702 E1.09115
G1 X-67.506 Y0.486 E1.13769
G1 X-67.5 Y0.004 E1.15614
G1 X-67.498 Y-1.648 E1.21936
G1 X-67.495 Y-1.789 E1.22476
G1 X-67.463 Y-2.559 E1.25425
G1 X-67.404 Y-3.547 E1.29213
G1 X-67.331 Y-5.021 E1.34861
G1 X-67.321 Y-5.161 E1.35398
G1 X-67.262 Y-5.808 E1.37884
G1 X-67.192 Y-6.431 E1.40283
G1 X-66.971 Y-8.56 E1.48475
G1 X-66.952 Y-8.71 E1.49053
G1 X-66.819 Y-9.606 E1.5252
G1 X-66.79 Y-9.779 E1.53191
G1 X-66.471 Y-11.837 E1.61161
G1 X-66.445 Y-11.985 E1.61736
G1 X-66.129 Y-13.574 E1.67936
G1 X-66.001 Y-14.175 E1.70288
G1 X-65.869 Y-14.851 E1.72924
G1 X-65.827 Y-15.038 E1.73657
G1 X-65.529 Y-16.217 E1.78311
G1 X-64.969 Y-18.373 E1.86836
G1 X-64.93 Y-18.51 E1.87381
G1 X-64.454 Y-20.081 E1.93663
G1 X-64.074 Y-21.297 E1.98538
G1 X-63.986 Y-21.564 E1.99614
G1 X-63.575 Y-22.698 E2.0423
G1 X-63.311 Y-23.391 E2.07068
G1 X-62.796 Y-24.8 E2.12809
G1 X-62.742 Y-24.94 E2.13383
G1 X-62.212 Y-26.216 E2.18671
G1 X-62.135 Y-26.417 E2.19495
G1 X-61.547 Y-27.769 E2.25137
G1 X-61.495 Y-27.882 E2.25613
G1 X-60.738 Y-29.468 E2.32339
G1 X-60.11 Y-30.758 E2.37829
G1 X-60.031 Y-30.911 E2.38488
G1 X-59.63 Y-31.64 E2.41672
G1 X-59.292 Y-32.273 E2.44418
G1 X-58.449 Y-33.801 E2.51097
G1 X-58.379 Y-33.923 E2.51635
G1 X-57.693 Y-35.056 E2.56704
G1 X-57.141 Y-35.944 E2.60705
G1 X-56.83 Y-36.461 E2.63014
G1 X-56.739 Y-36.604 E2.63663
G1 X-56.234 Y-37.357 E2.67133
G1 X-55.647 Y-38.196 E2.71051
G1 X-54.762 Y-39.493 E2.7706
G1 X-54.676 Y-39.613 E2.77625
G1 X-54.336 Y-40.068 E2.79799
G1 X-53.899 Y-40.631 E2.82526
G1 X-52.67 Y-42.239 E2.90272
G1 X-52.598 Y-42.33 E2.90716
G1 X-52.244 Y-42.763 E2.92856
G1 X-52.167 Y-42.844 E2.93284
G1 X-50.522 Y-44.786 E3.03024
G1 X-50.18 Y-45.164 E3.04975
G1 X-49.723 Y-45.647 E3.07519
G1 X-48.196 Y-47.28 E3.16075
G1 X-47.741 Y-47.736 E3.1854
G1 X-46.786 Y-48.657 E3.23618
G1 X-46.107 Y-49.325 E3.27263
G1 X-45.999 Y-49.426 E3.27829
G1 X-45.279 Y-50.077 E3.31544
G1 X-43.885 Y-51.299 E3.38638
G1 X-43.473 Y-51.665 E3.40747
G1 X-42.925 Y-52.111 E3.43451
G1 X-42.19 Y-52.685 E3.4702
G1 X-40.598 Y-53.945 E3.5479
G1 X-40.485 Y-54.031 E3.55333
G1 X-39.561 Y-54.704 E3.59708
G1 X-38.618 Y-55.372 E3.6413
G1 X-38.055 Y-55.777 E3.66784
G1 X-37.954 Y-55.845 E3.6725
G1 X-36.895 Y-56.53 E3.72077
G1 X-36.387 Y-56.848 E3.74371
G1 X-35.072 Y-57.693 E3.80352
G1 X-34.946 Y-57.769 E3.80916
G1 X-33.894 Y-58.385 E3.85581
G1 X-32.868 Y-58.969 E3.90099
G1 X-32.418 Y-59.231 E3.92092
G1 X-31.37 Y-59.784 E3.96626
G1 X-29.194 Y-60.879 E4.05949
G1 X-29.093 Y-60.928 E4.06378
G1 X-28.537 Y-61.185 E4.08723
G1 X-27.623 Y-61.589 E4.12547
G1 X-26.422 Y-62.135 E4.17596
G1 X-26.286 Y-62.193 E4.18161
G1 X-25.239 Y-62.617 E4.22484
G1 X-25.162 Y-62.642 E4.22794
G1 X-23.008 Y-63.476 E4.31634
G1 X-22.867 Y-63.527 E4.32208
G1 X-21.292 Y-64.061 E4.38572
G1 X-20.796 Y-64.222 E4.40568
G1 X-20.076 Y-64.468 E4.4348
G1 X-19.927 Y-64.515 E4.44077
G1 X-19.046 Y-64.773 E4.47591
G1 X-18.912 Y-64.801 E4.48114
G1 X-16.529 Y-65.461 E4.57577
G1 X-16.123 Y-65.561 E4.59178
G1 X-14.635 Y-65.896 E4.65015
G1 X-13.647 Y-66.128 E4.68898
G1 X-13.485 Y-66.162 E4.69532
G1 X-12.331 Y-66.376 E4.74024
G1 X-10.692 Y-66.658 E4.80388
G1 X-10.199 Y-66.746 E4.82305
G1 X-9.229 Y-66.88 E4.86052
G1 X-8.005 Y-67.025 E4.90769
G1 X-6.954 Y-67.161 E4.94825
G1 X-6.801 Y-67.177 E4.95413
G1 X-5.771 Y-67.265 E4.99369
G1 X-4.353 Y-67.362 E5.04809
G1 X-3.571 Y-67.426 E5.07811
G1 X-3.398 Y-67.436 E5.08475
G1 X-2.501 Y-67.465 E5.11909
G1 X-2.251 Y-67.468 E5.12866
G1 X0.122 Y-67.517 E5.21949
G1 X0.278 Y-67.517 E5.22546
G1 X1.646 Y-67.485 E5.27783
G1 X1.875 Y-67.488 E5.28659
G1 X3.316 Y-67.439 E5.34177
G1 X4.46 Y-67.366 E5.38564
G1 X6.747 Y-67.181 E5.47345
G1 X7.986 Y-67.036 E5.52119
G1 X9.2 Y-66.876 E5.56805
G1 X9.801 Y-66.805 E5.59121
G1 X9.963 Y-66.782 E5.59747
G1 X10.886 Y-66.628 E5.63328
G1 X11.225 Y-66.564 E5.64649
G1 X13.439 Y-66.167 E5.73257
G1 X13.579 Y-66.139 E5.73803
G1 X14.41 Y-65.954 E5.77061
G1 X15.545 Y-65.684 E5.81526
G1 X16.554 Y-65.458 E5.85483
G1 X16.707 Y-65.42 E5.86086
G1 X17.916 Y-65.091 E5.90881
G1 X18.16 Y-65.016 E5.91858
G1 X19.782 Y-64.557 E5.98309
G1 X19.911 Y-64.518 E5.98825
G1 X21.01 Y-64.161 E6.03247
G1 X21.09 Y-64.128 E6.03578
G1 X23.116 Y-63.437 E6.1177
G1 X23.249 Y-63.389 E6.12311
G1 X24.261 Y-62.997 E6.16465
G1 X26.288 Y-62.189 E6.24815
G1 X26.406 Y-62.14 E6.25304
G1 X27.304 Y-61.743 E6.29062
G1 X28.754 Y-61.081 E6.35162
G1 X29.175 Y-60.892 E6.36928
G1 X29.881 Y-60.54 E6.39947
G1 X30.635 Y-60.144 E6.43206
G1 X32.447 Y-59.208 E6.51011
G1 X32.571 Y-59.141 E6.51551
G1 X33.46 Y-58.635 E6.55465
G1 X35.273 Y-57.572 E6.63508
G1 X35.403 Y-57.492 E6.64092
G1 X36.402 Y-56.846 E6.68645
G1 X38.119 Y-55.726 E6.7649
G1 X38.222 Y-55.656 E6.76967
G1 X38.695 Y-55.323 E6.79181
G1 X39.86 Y-54.476 E6.84693
G1 X40.569 Y-53.972 E6.88022
G1 X40.693 Y-53.88 E6.88613
G1 X41.408 Y-53.322 E6.92084
G1 X42.259 Y-52.634 E6.96272
G1 X43.231 Y-51.864 E7.01017
G1 X43.345 Y-51.769 E7.01585
G1 X44.083 Y-51.132 E7.05316
G1 X45.104 Y-50.221 E7.10553
G1 X45.79 Y-49.623 E7.14035
G1 X45.928 Y-49.496 E7.14753
G1 X46.746 Y-48.703 E7.19113
G1 X48.428 Y-47.044 E7.28154
G1 X48.763 Y-46.693 E7.30011
G1 X49.563 Y-45.815 E7.34557
G1 X50.694 Y-44.593 E7.40929
G1 X50.795 Y-44.479 E7.41512
G1 X51.593 Y-43.538 E7.46233
G1 X52.855 Y-42.012 E7.53812
G1 X52.956 Y-41.885 E7.54433
G1 X53.714 Y-40.877 E7.59259
G1 X54.473 Y-39.881 E7.64052
G1 X54.828 Y-39.41 E7.66309
G1 X55.144 Y-38.948 E7.68451
G1 X55.603 Y-38.286 E7.71534
G1 X56.77 Y-36.546 E7.79551
G1 X57.039 Y-36.119 E7.81483
G1 X57.408 Y-35.503 E7.84231
G1 X58.56 Y-33.602 E7.92737
G1 X58.638 Y-33.466 E7.93337
G1 X59.093 Y-32.633 E7.9697
G1 X60.187 Y-30.597 E8.05815
G1 X60.325 Y-30.315 E8.07017
G1 X60.815 Y-29.272 E8.11427
G1 X61.618 Y-27.595 E8.18542
G1 X61.681 Y-27.457 E8.19123
G1 X62.298 Y-26.011 E8.25139
G1 X62.656 Y-25.145 E8.28725
G1 X62.87 Y-24.633 E8.30849
G1 X63.516 Y-22.868 E8.38042
G1 X63.732 Y-22.259 E8.40515
G1 X63.914 Y-21.77 E8.42511
G1 X63.968 Y-21.614 E8.43143
G1 X64.214 Y-20.843 E8.4624
G1 X64.356 Y-20.365 E8.48149
G1 X65.039 Y-18.122 E8.57122
G1 X65.078 Y-17.982 E8.57678
G1 X65.475 Y-16.458 E8.63705
G1 X65.809 Y-15.102 E8.69049
G1 X65.945 Y-14.476 E8.71501
G1 X66.08 Y-13.77 E8.74252
G1 X66.513 Y-11.591 E8.82754
G1 X66.538 Y-11.45 E8.83302
G1 X66.656 Y-10.701 E8.86203
G1 X67.007 Y-8.276 E8.9558
G1 X67.065 Y-7.769 E8.97533
G1 X67.095 Y-7.437 E8.98809
G1 X67.342 Y-4.847 E9.08766
G1 X67.354 Y-4.677 E9.09418
G1 X67.417 Y-3.334 E9.14563
G1 X67.495 Y-1.859 E9.20216
G1 X67.5 Y-1.693 E9.20851
G1 X67.506 Y-.566 E9.25164
G1 X67.5 Y-0.043 E9.27166
G1 X67.498 Y1.648 E9.33637
G1 X67.495 Y1.791 E9.34185
G1 X67.461 Y2.596 E9.37268
G1 X67.404 Y3.553 E9.40937
G1 X67.332 Y5.009 E9.46516
G1 X67.322 Y5.152 E9.47065
G1 X67.261 Y5.812 E9.49601
G1 X67.198 Y6.373 E9.51762
G1 X66.971 Y8.557 E9.60165
G1 X66.953 Y8.705 E9.60735
G1 X66.827 Y9.557 E9.64031
G1 X66.792 Y9.769 E9.64854
G1 X66.471 Y11.837 E9.72862
G1 X66.445 Y11.985 E9.73438
G1 X66.129 Y13.574 E9.79638
G1 X66.005 Y14.155 E9.81911
G1 X65.869 Y14.851 E9.84625
G1 X65.828 Y15.034 E9.85343
G1 X65.541 Y16.177 E9.89853
G1 X64.975 Y18.354 E9.98461
G1 X64.936 Y18.491 E9.99006
G1 X64.454 Y20.078 E10.05353
G1 X64.083 Y21.271 E10.10135
G1 X63.986 Y21.564 E10.11316
G1 X63.581 Y22.681 E10.15863
G1 X63.312 Y23.39 E10.18765
G1 X62.796 Y24.799 E10.24507
G1 X62.742 Y24.937 E10.25074
G1 X62.219 Y26.199 E10.30302
G1 X62.135 Y26.417 E10.31196
G1 X61.547 Y27.769 E10.36839
G1 X61.496 Y27.88 E10.37306
G1 X60.737 Y29.47 E10.44049
G1 X60.113 Y30.752 E10.49505
G1 X60.031 Y30.911 E10.5019
G1 X59.63 Y31.64 E10.53374
G1 X59.303 Y32.255 E10.56039
G1 X58.449 Y33.802 E10.62802
G1 X58.379 Y33.923 E10.63337
G1 X57.701 Y35.042 E10.68344
G1 X57.148 Y35.93 E10.72347
G1 X56.822 Y36.472 E10.74768
G1 X56.733 Y36.613 E10.75406
G1 X56.241 Y37.347 E10.78788
G1 X55.653 Y38.188 E10.82715
G1 X54.765 Y39.488 E10.8874
G1 X54.681 Y39.606 E10.89294
G1 X54.334 Y40.07 E10.91511
G1 X53.908 Y40.617 E10.94165
G1 X52.661 Y42.25 E11.02028
G1 X52.589 Y42.341 E11.02472
G1 X52.244 Y42.763 E11.04558
G1 X52.168 Y42.842 E11.04977
G1 X50.522 Y44.786 E11.14725
G1 X50.169 Y45.175 E11.16736
G1 X49.772 Y45.595 E11.18947
G1 X48.207 Y47.268 E11.27715
G1 X48.122 Y47.356 E11.28183
G1 X47.71 Y47.766 E11.30407
G1 X46.792 Y48.651 E11.35287
G1 X46.106 Y49.326 E11.3897
G1 X46 Y49.426 E11.39528
G1 X45.271 Y50.085 E11.43289
G1 X43.902 Y51.284 E11.50253
G1 X43.474 Y51.664 E11.52443
G1 X42.953 Y52.088 E11.55014
G1 X42.203 Y52.673 E11.58654
G1 X40.578 Y53.959 E11.66585
G1 X40.468 Y54.043 E11.67114
G1 X39.561 Y54.704 E11.71409
G1 X38.629 Y55.364 E11.7578
G1 X38.214 Y55.666 E11.77744
G1 X37.954 Y55.845 E11.78952
G1 X36.895 Y56.53 E11.83779
G1 X36.387 Y56.848 E11.86072
G1 X35.072 Y57.693 E11.92054
G1 X34.947 Y57.769 E11.92614
G1 X33.921 Y58.37 E11.97164
G1 X32.844 Y58.983 E12.01907
G1 X32.353 Y59.266 E12.04076
G1 X31.311 Y59.814 E12.08581
G1 X29.194 Y60.879 E12.1765
G1 X29.093 Y60.928 E12.1808
G1 X28.537 Y61.185 E12.20424
G1 X27.623 Y61.589 E12.24248
G1 X26.422 Y62.135 E12.29297
G1 X26.286 Y62.193 E12.29863
G1 X25.239 Y62.617 E12.34186
G1 X25.162 Y62.642 E12.34496
G1 X23.008 Y63.476 E12.43335
G1 X22.867 Y63.527 E12.43909
G1 X21.292 Y64.061 E12.50274
G1 X20.796 Y64.222 E12.52269
G1 X20.076 Y64.468 E12.55181
G1 X19.927 Y64.515 E12.55779
G1 X19.046 Y64.773 E12.59292
G1 X18.912 Y64.801 E12.59816
G1 X16.529 Y65.461 E12.69279
G1 X16.123 Y65.561 E12.70879
G1 X14.635 Y65.896 E12.76716
G1 X13.647 Y66.128 E12.806
G1 X13.485 Y66.162 E12.81234
G1 X12.331 Y66.376 E12.85725
G1 X10.692 Y66.658 E12.9209
G1 X10.199 Y66.746 E12.94006
G1 X9.229 Y66.88 E12.97754
G1 X8.005 Y67.025 E13.0247
G1 X6.954 Y67.161 E13.06526
G1 X6.801 Y67.177 E13.07115
G1 X5.771 Y67.265 E13.11071
G1 X4.353 Y67.362 E13.1651
G1 X3.571 Y67.426 E13.19513
G1 X3.398 Y67.436 E13.20176
G1 X2.501 Y67.465 E13.23611
G1 X2.251 Y67.468 E13.24568
G1 X-.122 Y67.517 E13.33651
G1 X-.278 Y67.517 E13.34248
G1 X-1.646 Y67.485 E13.39485
G1 X-1.875 Y67.488 E13.40361
G1 X-3.316 Y67.439 E13.45879
G1 X-4.46 Y67.366 E13.50266
G1 X-6.747 Y67.181 E13.59047
G1 X-7.986 Y67.036 E13.63821
G1 X-9.2 Y66.876 E13.68507
G1 X-9.801 Y66.805 E13.70823
G1 X-9.963 Y66.782 E13.71449
G1 X-10.886 Y66.628 E13.7503
G1 X-11.225 Y66.564 E13.7635
G1 X-13.439 Y66.167 E13.84958
G1 X-13.579 Y66.139 E13.85505
G1 X-14.41 Y65.954 E13.88763
G1 X-15.545 Y65.684 E13.93227
G1 X-16.554 Y65.458 E13.97184
G1 X-16.707 Y65.42 E13.97788
G1 X-17.916 Y65.091 E14.02583
G1 X-18.16 Y65.016 E14.0356
G1 X-19.782 Y64.557 E14.10011
G1 X-19.911 Y64.518 E14.10527
G1 X-21.01 Y64.161 E14.14949
G1 X-21.09 Y64.128 E14.1528
G1 X-23.116 Y63.437 E14.23472
G1 X-23.249 Y63.389 E14.24013
G1 X-24.261 Y62.997 E14.28166
G1 X-26.288 Y62.189 E14.36517
G1 X-26.404 Y62.141 E14.36997
G1 X-27.306 Y61.743 E14.4077
G1 X-28.755 Y61.081 E14.46867
G1 X-29.226 Y60.868 E14.48845
G1 X-29.879 Y60.542 E14.51638
G1 X-30.683 Y60.119 E14.55115
G1 X-32.457 Y59.203 E14.62756
G1 X-32.585 Y59.134 E14.63312
G1 X-33.46 Y58.635 E14.67167
G1 X-35.273 Y57.572 E14.7521
G1 X-35.403 Y57.492 E14.75794
G1 X-36.402 Y56.846 E14.80347
G1 X-38.119 Y55.726 E14.88192
G1 X-38.223 Y55.655 E14.88674
G1 X-38.695 Y55.322 E14.90885
G1 X-39.829 Y54.498 E14.96249
G1 X-40.569 Y53.972 E14.99724
G1 X-40.694 Y53.879 E15.0032
G1 X-41.408 Y53.322 E15.03785
G1 X-42.295 Y52.606 E15.08148
G1 X-43.223 Y51.872 E15.12676
G1 X-43.34 Y51.775 E15.13258
G1 X-44.101 Y51.117 E15.17108
G1 X-45.091 Y50.233 E15.22187
G1 X-45.791 Y49.623 E15.2574
G1 X-45.93 Y49.494 E15.26466
G1 X-46.771 Y48.678 E15.3095
G1 X-48.431 Y47.041 E15.39872
G1 X-48.77 Y46.685 E15.41754
G1 X-49.575 Y45.801 E15.46329
G1 X-50.695 Y44.592 E15.52636
G1 X-50.797 Y44.478 E15.53222
G1 X-51.611 Y43.518 E15.58038
G1 X-52.857 Y42.011 E15.65522
G1 X-52.957 Y41.884 E15.6614
G1 X-53.758 Y40.819 E15.7124
G1 X-54.717 Y39.561 E15.77294
G1 X-55.148 Y38.941 E15.80183
G1 X-55.596 Y38.295 E15.83192
G1 X-56.829 Y36.455 E15.91668
G1 X-57.075 Y36.061 E15.93446
G1 X-57.438 Y35.452 E15.96159
G1 X-58.563 Y33.595 E16.04468
G1 X-58.642 Y33.459 E16.0507
G1 X-59.103 Y32.616 E16.08747
G1 X-60.126 Y30.716 E16.17005
G1 X-60.32 Y30.327 E16.18669
G1 X-60.846 Y29.207 E16.23404
G0 F2720 X-60.529 Y29.059
G1 F1020 X-61.307 Y27.434 E16.30299
G1 X-61.363 Y27.31 E16.3082
G1 X-61.975 Y25.877 E16.36783
G1 X-62.349 Y24.973 E16.40527
G1 X-62.541 Y24.513 E16.42434
G1 X-63.187 Y22.749 E16.49624
G1 X-63.402 Y22.141 E16.52092
G1 X-63.594 Y21.625 E16.54199
G1 X-63.642 Y21.486 E16.54761
G1 X-63.882 Y20.733 E16.57786
G1 X-64.048 Y20.175 E16.60014
G1 X-64.702 Y18.029 E16.68599
G1 X-64.738 Y17.903 E16.69101
G1 X-65.125 Y16.414 E16.74988
G1 X-65.142 Y16.363 E16.75194
G1 X-65.491 Y14.922 E16.80868
G1 X-65.614 Y14.344 E16.8313
G1 X-65.754 Y13.616 E16.85967
G1 X-66.17 Y11.523 E16.94133
G1 X-66.193 Y11.396 E16.94627
G1 X-66.309 Y10.651 E16.97513
G1 X-66.674 Y8.119 E17.07303
G1 X-66.753 Y7.335 E17.10318
G1 X-66.994 Y4.812 E17.20018
G1 X-67.004 Y4.662 E17.20593
G1 X-67.07 Y3.29 E17.2585
G1 X-67.146 Y1.852 E17.3136
G1 X-67.15 Y1.701 E17.31938
G1 X-67.156 Y0.49 E17.36573
G1 X-67.15 Y0.008 E17.38418
G1 X-67.148 Y-1.648 E17.44755
G1 X-67.145 Y-1.774 E17.45237
G1 X-67.113 Y-2.538 E17.48164
G1 X-67.054 Y-3.526 E17.51952
G1 X-66.981 Y-5.004 E17.57615
G1 X-66.972 Y-5.13 E17.58098
G1 X-66.914 Y-5.769 E17.60554
G1 X-66.844 Y-6.392 E17.62953
G1 X-66.623 Y-8.524 E17.71156
G1 X-66.606 Y-8.659 E17.71676
G1 X-66.474 Y-9.548 E17.75116
G1 X-66.445 Y-9.721 E17.75787
G1 X-66.125 Y-11.784 E17.83776
G1 X-66.102 Y-11.917 E17.84293
G1 X-65.786 Y-13.501 E17.90474
G1 X-65.66 Y-14.092 E17.92787
G1 X-65.525 Y-14.784 E17.95485
G1 X-65.487 Y-14.953 E17.96148
G1 X-65.19 Y-16.129 E18.0079
G1 X-64.63 Y-18.285 E18.09314
G1 X-64.595 Y-18.408 E18.09804
G1 X-64.12 Y-19.977 E18.16077
G1 X-63.741 Y-21.19 E18.20941
G1 X-63.657 Y-21.445 E18.21968
G1 X-63.247 Y-22.574 E18.26565
G1 X-62.998 Y-23.231 E18.29254
G1 X-62.468 Y-24.68 E18.35158
G1 X-62.418 Y-24.806 E18.35677
G1 X-61.842 Y-26.194 E18.41428
G1 X-61.814 Y-26.277 E18.41763
G1 X-61.226 Y-27.629 E18.47406
G1 X-61.179 Y-27.731 E18.47835
G1 X-60.423 Y-29.315 E18.54552
G1 X-59.795 Y-30.604 E18.6004
G1 X-59.724 Y-30.742 E18.60634
G1 X-59.323 Y-31.471 E18.63818
G1 X-58.986 Y-32.104 E18.66562
G1 X-58.143 Y-33.632 E18.7324
G1 X-58.079 Y-33.742 E18.73727
G1 X-57.395 Y-34.871 E18.78779
G1 X-56.86 Y-35.732 E18.82659
G1 X-56.53 Y-36.28 E18.85107
G1 X-56.448 Y-36.409 E18.85692
G1 X-55.947 Y-37.156 E18.89134
G1 X-55.381 Y-37.965 E18.92912
G1 X-54.473 Y-39.295 E18.99075
G1 X-54.396 Y-39.404 E18.99586
G1 X-54.059 Y-39.854 E19.01737
G1 X-53.622 Y-40.417 E19.04465
G1 X-52.392 Y-42.027 E19.12218
G1 X-51.973 Y-42.542 E19.14759
G1 X-51.9 Y-42.618 E19.15163
G1 X-50.255 Y-44.56 E19.24902
G1 X-49.925 Y-44.923 E19.2678
G1 X-49.481 Y-45.393 E19.29254
G1 X-47.94 Y-47.041 E19.37889
G1 X-47.494 Y-47.488 E19.40305
