;FLAVOR:Marlin
;TIME:627
;Filament used: 0.239866m
;Layer height: 0.1
;MINX:-15.766
;MINY:-15.864
;MINZ:0.26
;MAXX:15.766
;MAXY:15.858
;MAXZ:1.96
;Generated with Cura_SteamEngine 4.9.0
M82 ;absolute extrusion mode
;Gcode by Cura
G90
G28
M107
M109 R100
G30
M109 S205 U-55 X55 V-85 Y-85 W0.26 Z0.26
M82
G92 E0
G1 F200 E6
G92 E0
G1 F200 E-3.5
G0 Z0.15
G0 X10
G0 Z3
G1 F6000

G92 E0
G92 E0
G1 F3600 E-3.8
;LAYER_COUNT:18
;LAYER:0
M107
G0 F2720 X-10.446 Y11.806 Z0.26
;TYPE:SKIRT
G1 F3600 E0
G1 F1020 X-11.502 Y10.889 E0.05352
G1 X-11.868 Y10.525 E0.07328
G1 X-12.053 Y10.315 E0.08399
G1 X-12.383 Y9.882 E0.10482
G1 X-12.778 Y9.281 E0.13235
G1 X-14.036 Y7.31 E0.22183
G1 X-14.312 Y6.823 E0.24325
G1 X-14.473 Y6.484 E0.25761
G1 X-14.678 Y5.956 E0.27929
G1 X-14.821 Y5.489 E0.29798
G1 X-15.177 Y4.293 E0.34573
G1 X-15.194 Y4.214 E0.34883
G1 X-15.53 Y3.054 E0.39504
G1 X-15.695 Y2.277 E0.42544
G1 X-15.763 Y1.592 E0.45179
G1 X-15.766 Y1.225 E0.46583
G1 X-15.757 Y-1.043 E0.55263
G1 X-15.738 Y-1.999 E0.58922
G1 X-15.677 Y-2.438 E0.60618
G1 X-15.553 Y-2.983 E0.62757
G1 X-15.349 Y-3.655 E0.65445
G1 X-14.774 Y-5.613 E0.73254
G1 X-14.699 Y-5.883 E0.74327
G1 X-14.506 Y-6.421 E0.76514
G1 X-14.172 Y-7.093 E0.79386
G1 X-14.027 Y-7.33 E0.80449
G1 X-12.614 Y-9.534 E0.90468
G1 X-12.309 Y-9.986 E0.92555
G1 X-11.937 Y-10.449 E0.94828
G1 X-11.543 Y-10.852 E0.96985
G1 X-11.273 Y-11.092 E0.98368
G1 X-9.521 Y-12.614 E1.07249
G1 X-8.802 Y-13.191 E1.10777
G1 X-8.514 Y-13.384 E1.12104
G1 X-7.913 Y-13.714 E1.14728
G1 X-7.724 Y-13.797 E1.15518
G1 X-5.474 Y-14.823 E1.24981
G1 X-4.77 Y-15.124 E1.27911
G1 X-4.24 Y-15.287 E1.30033
G1 X-3.732 Y-15.388 E1.32016
G1 X-3.405 Y-15.431 E1.33278
G1 X-.811 Y-15.807 E1.43309
G1 X-.215 Y-15.858 E1.45598
G1 X0.171 Y-15.864 E1.47075
G1 X0.96 Y-15.79 E1.50108
G1 X3.123 Y-15.472 E1.58475
G1 X3.682 Y-15.394 E1.60635
G1 X4.533 Y-15.198 E1.63977
G1 X5.186 Y-14.96 E1.66636
G1 X5.684 Y-14.726 E1.68742
G1 X7.093 Y-14.094 E1.74652
G1 X7.923 Y-13.711 E1.7815
G1 X8.645 Y-13.298 E1.81333
G1 X9.182 Y-12.898 E1.83896
G1 X11.491 Y-10.901 E1.95579
G1 X11.856 Y-10.54 E1.97543
G1 X12.216 Y-10.115 E1.99675
G1 X12.409 Y-9.845 E2.00945
G1 X12.777 Y-9.282 E2.03519
G1 X14.001 Y-7.363 E2.1223
G1 X14.029 Y-7.322 E2.1242
G1 X14.309 Y-6.829 E2.14589
G1 X14.47 Y-6.491 E2.16022
G1 X14.677 Y-5.959 E2.18207
G1 X14.821 Y-5.489 E2.20088
G1 X15.177 Y-4.293 E2.24863
G1 X15.194 Y-4.214 E2.25173
G1 X15.53 Y-3.054 E2.29794
G1 X15.694 Y-2.285 E2.32804
G1 X15.763 Y-1.595 E2.35457
G1 X15.766 Y-1.225 E2.36873
G1 X15.757 Y1.043 E2.45553
G1 X15.743 Y1.943 E2.48998
G1 X15.677 Y2.438 E2.50909
G1 X15.553 Y2.983 E2.53048
G1 X15.349 Y3.655 E2.55735
G1 X14.774 Y5.613 E2.63545
G1 X14.699 Y5.883 E2.64617
G1 X14.506 Y6.42 E2.66801
G1 X14.18 Y7.079 E2.69615
G1 X14.046 Y7.301 E2.70607
G1 X12.614 Y9.534 E2.80759
G1 X12.309 Y9.986 E2.82846
G1 X11.937 Y10.449 E2.85119
G1 X11.545 Y10.851 E2.87267
G1 X11.244 Y11.118 E2.88807
G1 X9.578 Y12.564 E2.9725
G1 X9.156 Y12.923 E2.9937
G1 X8.516 Y13.383 E3.02386
G1 X7.905 Y13.718 E3.05053
G1 X7.755 Y13.783 E3.05678
G1 X5.431 Y14.842 E3.15452
G1 X4.758 Y15.129 E3.18252
G1 X4.237 Y15.287 E3.20336
G1 X3.741 Y15.386 E3.22271
G1 X3.418 Y15.429 E3.23518
G1 X0.811 Y15.807 E3.33599
G1 X0.215 Y15.858 E3.35889
G1 X-.652 Y15.83 E3.39208
G1 X-1.027 Y15.781 E3.40656
G1 X-3.124 Y15.471 E3.48768
G1 X-3.683 Y15.394 E3.50927
G1 X-4.537 Y15.197 E3.54281
G1 X-5.183 Y14.961 E3.56913
G1 X-5.672 Y14.732 E3.5898
G1 X-7.119 Y14.082 E3.6505
G1 X-7.923 Y13.711 E3.68439
G1 X-8.645 Y13.298 E3.71622
G1 X-9.182 Y12.898 E3.74185
G1 X-10.446 Y11.806 E3.80577
G0 F2720 X-10.227 Y11.533
G1 F1020 X-11.272 Y10.625 E3.85875
G1 X-11.79 Y10.084 E3.88742
G1 X-12.091 Y9.69 E3.90639
G1 X-12.483 Y9.093 E3.93372
G1 X-13.745 Y7.116 E4.02348
G1 X-13.996 Y6.673 E4.04297
G1 X-14.157 Y6.334 E4.05733
G1 X-14.344 Y5.853 E4.07708
G1 X-14.486 Y5.39 E4.09561
G1 X-14.842 Y4.194 E4.14337
G1 X-14.86 Y4.111 E4.14662
G1 X-15.194 Y2.956 E4.19263
G1 X-15.351 Y2.212 E4.22173
G1 X-15.413 Y1.589 E4.24569
G1 X-15.416 Y1.226 E4.25958
G1 X-15.407 Y-1.047 E4.34657
G1 X-15.39 Y-1.96 E4.38152
G1 X-15.331 Y-2.385 E4.39794
G1 X-15.218 Y-2.881 E4.4174
G1 X-15.013 Y-3.557 E4.44444
G1 X-14.337 Y-5.857 E4.53618
G1 X-14.186 Y-6.279 E4.55333
G1 X-13.873 Y-6.912 E4.58036
G1 X-13.732 Y-7.142 E4.59068
G1 X-12.322 Y-9.342 E4.69068
G1 X-12.028 Y-9.777 E4.71078
G1 X-11.67 Y-10.223 E4.73266
G1 X-11.312 Y-10.59 E4.75228
G1 X-11.043 Y-10.828 E4.76603
G1 X-9.294 Y-12.347 E4.85468
G1 X-8.607 Y-12.9 E4.88843
G1 X-8.319 Y-13.093 E4.9017
G1 X-7.772 Y-13.393 E4.92557
G1 X-7.593 Y-13.471 E4.93305
G1 X-5.324 Y-14.506 E5.02849
G1 X-4.66 Y-14.792 E5.05615
G1 X-4.148 Y-14.949 E5.07665
G1 X-3.368 Y-15.083 E5.10694
G1 X-.761 Y-15.461 E5.20775
G1 X-.192 Y-15.509 E5.2296
G1 X0.158 Y-15.514 E5.243
G1 X0.915 Y-15.443 E5.27209
G1 X3.041 Y-15.13 E5.35433
G1 X3.634 Y-15.048 E5.37724
G1 X4.443 Y-14.86 E5.40903
G1 X5.038 Y-14.644 E5.43325
G1 X5.566 Y-14.396 E5.45558
G1 X6.946 Y-13.777 E5.51346
G1 X7.776 Y-13.394 E5.54844
G1 X8.461 Y-13 E5.57868
G1 X8.95 Y-12.637 E5.60199
G1 X11.262 Y-10.636 E5.719
G1 X11.763 Y-10.117 E5.74661
G1 X12.116 Y-9.653 E5.76892
G1 X12.482 Y-9.094 E5.79449
G1 X13.738 Y-7.127 E5.8838
G1 X13.993 Y-6.679 E5.90353
G1 X14.154 Y-6.341 E5.91786
G1 X14.343 Y-5.857 E5.93774
G1 X14.486 Y-5.39 E5.95644
G1 X14.842 Y-4.194 E6.00419
G1 X14.86 Y-4.111 E6.00744
G1 X15.194 Y-2.956 E6.05345
G1 X15.35 Y-2.219 E6.08228
G1 X15.413 Y-1.591 E6.10644
G1 X15.416 Y-1.226 E6.12041
G1 X15.407 Y1.046 E6.20735
G1 X15.395 Y1.909 E6.24038
G1 X15.331 Y2.385 E6.25876
G1 X15.218 Y2.881 E6.27823
G1 X15.013 Y3.557 E6.30527
G1 X14.337 Y5.857 E6.39701
G1 X14.187 Y6.277 E6.41408
G1 X13.881 Y6.899 E6.4406
G1 X13.751 Y7.112 E6.45015
G1 X12.322 Y9.342 E6.55151
G1 X12.028 Y9.777 E6.57161
G1 X11.67 Y10.223 E6.59349
G1 X11.313 Y10.589 E6.61306
G1 X11.015 Y10.853 E6.6283
G1 X9.351 Y12.298 E6.71264
G1 X8.929 Y12.657 E6.73384
G1 X8.321 Y13.093 E6.76247
G1 X7.765 Y13.397 E6.78672
G1 X7.646 Y13.449 E6.79169
G1 X5.256 Y14.538 E6.8922
G1 X4.648 Y14.797 E6.91749
G1 X4.146 Y14.949 E6.93757
G1 X3.368 Y15.082 E6.96777
G1 X0.761 Y15.461 E7.06859
G1 X0.192 Y15.509 E7.09044
G1 X-.607 Y15.483 E7.12104
G1 X-.976 Y15.434 E7.13528
G1 X-3.042 Y15.13 E7.2152
G1 X-3.635 Y15.048 E7.23811
G1 X-4.447 Y14.859 E7.27001
G1 X-5.035 Y14.644 E7.29397
G1 X-5.545 Y14.405 E7.31553
G1 X-6.972 Y13.765 E7.37538
G1 X-7.776 Y13.394 E7.40926
G1 X-8.461 Y13 E7.43951
G1 X-8.95 Y12.637 E7.46281
G1 X-9.04 Y12.557 E7.46742
G1 X-10.227 Y11.533 E7.52741
G0 F2720 X-9.997 Y11.269
G1 F1020 X-11.042 Y10.361 E7.58039
G1 X-11.527 Y9.853 E7.60727
G1 X-11.798 Y9.498 E7.62436
G1 X-12.188 Y8.904 E7.65156
G1 X-13.454 Y6.922 E7.74156
G1 X-13.841 Y6.184 E7.77345
G1 X-14.143 Y5.313 E7.80873
G1 X-14.506 Y4.094 E7.85741
G1 X-14.521 Y4.025 E7.86011
G1 X-14.858 Y2.859 E7.90656
G1 X-15.007 Y2.146 E7.93443
G1 X-15.063 Y1.585 E7.95601
G1 X-15.066 Y1.228 E7.96967
G1 X-15.057 Y-1.095 E8.05857
G1 X-15.043 Y-1.922 E8.09023
G1 X-14.884 Y-2.779 E8.12358
G1 X-14.668 Y-3.489 E8.15198
G1 X-14.103 Y-5.416 E8.22883
G1 X-13.866 Y-6.136 E8.25784
G1 X-13.574 Y-6.73 E8.28317
G1 X-13.438 Y-6.953 E8.29317
G1 X-12.029 Y-9.15 E8.39305
G1 X-11.747 Y-9.568 E8.41235
G1 X-11.402 Y-9.998 E8.43344
G1 X-10.836 Y-10.544 E8.46354
G1 X-9.097 Y-12.056 E8.55173
G1 X-8.699 Y-12.393 E8.57169
G1 X-8.125 Y-12.803 E8.59868
G1 X-7.632 Y-13.073 E8.62019
G1 X-7.429 Y-13.162 E8.62868
G1 X-5.161 Y-14.196 E8.72407
G1 X-4.549 Y-14.46 E8.74957
G1 X-4.057 Y-14.611 E8.76927
G1 X-3.292 Y-14.74 E8.79896
G1 X-.711 Y-15.114 E8.89876
G1 X-.169 Y-15.159 E8.91958
G1 X0.146 Y-15.164 E8.93163
G1 X0.87 Y-15.096 E8.95946
G1 X3.007 Y-14.781 E9.04213
G1 X3.586 Y-14.701 E9.0645
G1 X4.354 Y-14.522 E9.09468
G1 X4.889 Y-14.327 E9.11647
G1 X5.39 Y-14.092 E9.13764
G1 X6.799 Y-13.459 E9.19676
G1 X7.629 Y-13.076 E9.23174
G1 X8.277 Y-12.703 E9.26035
G1 X8.717 Y-12.375 E9.28136
G1 X11.033 Y-10.372 E9.39854
G1 X11.501 Y-9.885 E9.42439
G1 X11.823 Y-9.462 E9.44473
G1 X12.187 Y-8.906 E9.47016
G1 X13.447 Y-6.932 E9.55978
G1 X13.838 Y-6.19 E9.59188
G1 X14.143 Y-5.313 E9.62742
G1 X14.506 Y-4.094 E9.67609
G1 X14.521 Y-4.025 E9.67879
G1 X14.858 Y-2.859 E9.72524
G1 X15.007 Y-2.153 E9.75285
G1 X15.063 Y-1.588 E9.77458
G1 X15.066 Y-1.228 E9.78836
G1 X15.057 Y1.095 E9.87726
G1 X15.047 Y1.875 E9.90711
G1 X14.884 Y2.779 E9.94227
G1 X14.668 Y3.489 E9.97067
G1 X14.103 Y5.416 E10.04752
G1 X13.867 Y6.135 E10.07648
G1 X13.581 Y6.719 E10.10136
G1 X13.456 Y6.923 E10.11052
G1 X12.029 Y9.15 E10.21174
G1 X11.747 Y9.568 E10.23104
G1 X11.402 Y9.998 E10.25214
G1 X10.809 Y10.568 E10.28361
G1 X9.124 Y12.031 E10.36901
G1 X8.702 Y12.39 E10.39022
G1 X8.126 Y12.802 E10.41732
G1 X7.625 Y13.076 E10.43917
G1 X7.474 Y13.142 E10.44548
G1 X5.159 Y14.197 E10.54284
G1 X4.539 Y14.464 E10.56867
G1 X4.055 Y14.611 E10.58803
G1 X3.318 Y14.736 E10.61664
G1 X0.711 Y15.114 E10.71745
G1 X0.169 Y15.159 E10.73826
G1 X-.561 Y15.136 E10.76621
G1 X-.925 Y15.088 E10.78026
G1 X-3.008 Y14.781 E10.86084
G1 X-3.587 Y14.701 E10.88321
G1 X-4.357 Y14.521 E10.91347
G1 X-4.886 Y14.328 E10.93502
G1 X-5.434 Y14.071 E10.95818
G1 X-6.825 Y13.447 E11.01653
G1 X-7.629 Y13.076 E11.05041
G1 X-8.277 Y12.703 E11.07903
G1 X-8.717 Y12.375 E11.10003
G1 X-9.997 Y11.269 E11.16477
G1 F3600 E7.36477
;MESH:m1_z22_a20.stl
G0 F2720 X-9.242 Y8.574
G0 X-8.877 Y7.748
G0 X-7.28 Y5.922
G0 X-5.113 Y-2.118
;TYPE:WALL-INNER
G1 F3600 E11.16477
G1 F1020 X-5.535 Y0.00 E11.24742
G1 X-5.113 Y2.118 E11.33006
G1 X-3.914 Y3.914 E11.4127
G1 X-2.118 Y5.113 E11.49535
G1 X0.00 Y5.535 E11.57799
G1 X2.118 Y5.113 E11.66064
G1 X3.914 Y3.914 E11.74328
G1 X5.113 Y2.118 E11.82592
G1 X5.535 Y0.00 E11.90857
G1 X5.113 Y-2.118 E11.99122
G1 X3.914 Y-3.914 E12.07386
G1 X2.118 Y-5.113 E12.1565
G1 X0.00 Y-5.535 E12.23915
G1 X-2.118 Y-5.113 E12.3218
G1 X-3.914 Y-3.914 E12.40444
G1 X-5.113 Y-2.118 E12.48708
G0 F2720 X-3.816 Y-3.816
G0 X-2.064 Y-4.985
G0 X0.00 Y-5.396
G0 X2.064 Y-4.985
G0 X9.172 Y-1.183
G1 F1020 X9.223 Y-.195 E12.52494
G1 X9.219 Y0.318 E12.54457
G1 X9.184 Y1.056 E12.57285
G1 X10.16 Y1.243 E12.61088
G1 X10.443 Y1.326 E12.62217
G1 X10.642 Y1.383 E12.63009
G1 X10.756 Y1.444 E12.63503
G1 X11.029 Y1.589 E12.64686
G1 X10.697 Y1.655 E12.65179
G1 X10.638 Y1.667 E12.65301
G1 X10.431 Y1.673 E12.6602
G1 X10.206 Y1.681 E12.66882
G1 X9.131 Y1.452 E12.71088
G1 X8.921 Y2.35 E12.74617
G1 X8.755 Y2.906 E12.76838
G1 X8.513 Y3.6 E12.79651
G1 X9.4 Y4.056 E12.83467
G1 X9.69 Y4.242 E12.84786
G1 X9.815 Y4.322 E12.85354
G1 X9.824 Y4.328 E12.85395
G1 X9.858 Y4.36 E12.85574
G1 X10.147 Y4.635 E12.87101
G1 X9.795 Y4.597 E12.87569
G1 X9.649 Y4.581 E12.88055
G1 X9.506 Y4.54 E12.8859
G1 X9.301 Y4.479 E12.89408
G1 X8.355 Y3.966 E12.93526
G1 X7.86 Y4.829 E12.97334
G1 X7.583 Y5.255 E12.99278
G1 X7.154 Y5.852 E13.02092
G1 X7.877 Y6.541 E13.05914
G1 X8.073 Y6.766 E13.07056
G1 X8.212 Y6.926 E13.07867
G1 X8.256 Y7.004 E13.0821
G1 X8.423 Y7.3 E13.0951
G1 X8.113 Y7.177 E13.0996
G1 X8.019 Y7.139 E13.10238
G1 X7.839 Y7.026 E13.10979
G1 X7.646 Y6.904 E13.11853
G1 X6.899 Y6.156 E13.15899
G1 X6.25 Y6.785 E13.19357
G1 X5.835 Y7.145 E13.2146
G1 X5.216 Y7.632 E13.24474
G1 X5.792 Y8.624 E13.28864
G1 X5.876 Y8.844 E13.29765
G1 X5.91 Y8.932 E13.30126
G1 X5.955 Y9.048 E13.30602
G1 X6.023 Y9.376 E13.31884
G1 X5.822 Y9.214 E13.32127
G1 X5.614 Y9.046 E13.32973
G1 X5.553 Y8.974 E13.33317
G1 X5.404 Y8.801 E13.34191
G1 X4.883 Y7.847 E13.38351
G1 X4.132 Y8.247 E13.41607
G1 X3.46 Y8.552 E13.44431
G1 X2.853 Y8.79 E13.46926
G1 X3.093 Y9.775 E13.50806
G1 X3.144 Y10.073 E13.51963
G1 X3.159 Y10.165 E13.5232
G1 X3.154 Y10.324 E13.52929
G1 X3.142 Y10.706 E13.54391
G1 X2.895 Y10.35 E13.55118
G1 X2.871 Y10.316 E13.55277
G1 X2.866 Y10.304 E13.55283
G1 X2.826 Y10.219 E13.5563
G1 X2.706 Y9.966 E13.56701
G1 X2.476 Y8.911 E13.60834
G1 X1.452 Y9.11 E13.64826
G1 X0.261 Y9.245 E13.69413
G1 X0.215 Y10.239 E13.73221
G1 X0.176 Y10.556 E13.74443
G1 X0.166 Y10.641 E13.74771
G1 X0.124 Y10.768 E13.75283
G1 X-0.002 Y11.15 E13.76822
G1 X-.137 Y10.743 E13.77516
G1 X-.16 Y10.675 E13.77791
G1 X-.172 Y10.59 E13.78109
G1 X-.211 Y10.322 E13.79145
G1 X-.137 Y9.244 E13.83281
G1 X-.986 Y9.172 E13.86541
G1 X-1.637 Y9.079 E13.89058
G1 X-2.35 Y8.938 E13.91839
G1 X-2.68 Y9.887 E13.95684
G1 X-2.805 Y10.165 E13.96851
G1 X-2.872 Y10.316 E13.97483
G1 X-2.932 Y10.399 E13.97875
G1 X-3.145 Y10.693 E13.99264
G1 X-3.158 Y10.327 E13.99793
G1 X-3.162 Y10.234 E14.0015
G1 X-3.141 Y10.07 E14.00739
G1 X-3.113 Y9.854 E14.01572
G1 X-2.735 Y8.832 E14.05742
G1 X-3.655 Y8.47 E14.09526
G1 X-4.064 Y8.282 E14.11248
G1 X-4.775 Y7.916 E14.14309
G1 X-5.386 Y8.777 E14.18349
G1 X-5.599 Y9.009 E14.19554
G1 X-5.612 Y9.023 E14.19627
G1 X-5.733 Y9.154 E14.2031
G1 X-5.978 Y9.341 E14.21489
G1 X-6.026 Y9.378 E14.21721
G1 X-6.015 Y9.293
G1 X-5.955 Y9.089 E14.2198
G1 X-5.866 Y8.79 E14.2301
G1 X-5.858 Y8.772 E14.23085
G1 X-5.755 Y8.565 E14.2397
G1 X-5.113 Y7.705 E14.28077
G1 X-5.883 Y7.106 E14.3181
G1 X-6.287 Y6.751 E14.33868
G1 X-6.811 Y6.248 E14.36648
G1 X-7.593 Y6.865 E14.4046
G1 X-7.909 Y7.068 E14.41897
G1 X-7.921 Y7.076 E14.41953
G1 X-8.017 Y7.138 E14.4239
G1 X-8.415 Y7.271 E14.43996
G1 X-8.243 Y6.997 E14.44402
G1 X-8.109 Y6.785 E14.45276
G1 X-8.099 Y6.774 E14.45332
G1 X-7.958 Y6.618 E14.46137
G1 X-7.078 Y5.952 E14.50361
G1 X-7.645 Y5.162 E14.54082
G1 X-7.937 Y4.701 E14.5617
G1 X-8.296 Y4.077 E14.58925
G1 X-9.264 Y4.465 E14.62916
G1 X-9.521 Y4.539 E14.6394
G1 X-9.702 Y4.591 E14.6466
G1 X-9.797 Y4.599 E14.65025
G1 X-10.143 Y4.632 E14.66355
G1 X-9.893 Y4.393 E14.6683
G1 X-9.823 Y4.325 E14.67109
G1 X-9.666 Y4.221 E14.67771
G1 X-9.473 Y4.094 E14.68655
G1 X-8.469 Y3.718 E14.72758
G1 X-8.817 Y2.715 E14.76821
G1 X-8.956 Y2.211 E14.78822
G1 X-9.106 Y1.573 E14.8133
G1 X-10.134 Y1.674 E14.85283
G1 X-10.393 Y1.669 E14.86274
G1 X-10.639 Y1.666 E14.87216
G1 X-10.731 Y1.649 E14.87574
G1 X-11.04 Y1.588 E14.88779
G1 X-10.758 Y1.44 E14.89197
G1 X-10.683 Y1.401 E14.89383
G1 X-10.449 Y1.326 E14.90215
G1 X-10.242 Y1.258 E14.91049
G1 X-9.172 Y1.183 E14.95153
G1 X-9.223 Y0.189 E14.98962
G1 X-9.219 Y-.318 E15.00903
G1 X-9.184 Y-1.056 E15.0373
G1 X-10.16 Y-1.243 E15.07533
G1 X-10.444 Y-1.326 E15.08666
G1 X-10.645 Y-1.384 E15.09466
G1 X-10.753 Y-1.439 E15.0993
G1 X-11.043 Y-1.586 E15.11174
G1 X-10.7 Y-1.654 E15.11677
G1 X-10.638 Y-1.667 E15.1182
G1 X-10.428 Y-1.673 E15.12548
G1 X-10.206 Y-1.681 E15.13398
G1 X-9.131 Y-1.452 E15.17605
G1 X-8.921 Y-2.35 E15.21134
G1 X-8.755 Y-2.906 E15.23354
G1 X-8.513 Y-3.6 E15.26167
G1 X-9.402 Y-4.058 E15.29994
G1 X-9.689 Y-4.242 E15.31299
G1 X-9.814 Y-4.322 E15.31867
G1 X-9.832 Y-4.334 E15.3195
G1 X-9.859 Y-4.36 E15.32093
G1 X-10.148 Y-4.635 E15.3362
G1 X-9.804 Y-4.598 E15.34063
G1 X-9.649 Y-4.581 E15.34583
G1 X-9.506 Y-4.54 E15.35117
G1 X-9.301 Y-4.479 E15.35936
G1 X-8.355 Y-3.966 E15.40054
G1 X-7.859 Y-4.83 E15.43867
G1 X-7.583 Y-5.255 E15.45806
G1 X-7.154 Y-5.852 E15.4862
G1 X-7.877 Y-6.541 E15.52442
G1 X-8.072 Y-6.765 E15.53578
G1 X-8.213 Y-6.928 E15.54403
G1 X-8.256 Y-7.004 E15.54737
G1 X-8.423 Y-7.3 E15.56038
G1 X-8.114 Y-7.177 E15.56482
G1 X-8.019 Y-7.139 E15.56762
G1 X-7.836 Y-7.024 E15.57515
G1 X-7.646 Y-6.904 E15.58375
G1 X-6.899 Y-6.156 E15.6242
G1 X-6.25 Y-6.785 E15.65879
G1 X-5.835 Y-7.145 E15.67982
G1 X-5.216 Y-7.632 E15.70996
G1 X-5.79 Y-8.621 E15.75372
G1 X-5.874 Y-8.842 E15.76277
G1 X-5.907 Y-8.929 E15.76633
G1 X-5.958 Y-9.061 E15.77174
G1 X-6.024 Y-9.376 E15.78406
G1 X-5.831 Y-9.22 E15.78626
G1 X-5.611 Y-9.043 E15.79504
G1 X-5.551 Y-8.973 E15.7984
G1 X-5.406 Y-8.805 E15.8069
G1 X-4.883 Y-7.847 E15.84867
G1 X-4.132 Y-8.247 E15.88123
G1 X-3.458 Y-8.553 E15.90956
G1 X-2.853 Y-8.79 E15.93442
G1 X-3.093 Y-9.775 E15.97322
G1 X-3.143 Y-10.07 E15.98467
G1 X-3.159 Y-10.165 E15.98836
G1 X-3.154 Y-10.33 E15.99467
G1 X-3.142 Y-10.706 E16.00907
G1 X-2.894 Y-10.35 E16.01641
G1 X-2.875 Y-10.322 E16.01707
G1 X-2.867 Y-10.304 E16.01732
G1 X-2.826 Y-10.217 E16.02086
G1 X-2.706 Y-9.964 E16.03158
G1 X-2.476 Y-8.911 E16.07282
G1 X-1.452 Y-9.11 E16.11275
G1 X-.261 Y-9.245 E16.15862
G1 X-.215 Y-10.239 E16.1967
G1 X-.176 Y-10.558 E16.209
G1 X-.166 Y-10.643 E16.21227
G1 X-.125 Y-10.768 E16.21731
